svg/matomo.svg

<svg xmlns="http://www.w3.org/2000/svg" xmlns:xlink="http://www.w3.org/1999/xlink" xml:space="preserve" id="Layer_1" x="0" y="0" version="1.1" viewBox="0 0 512 512"><style>.st4{fill:#3252a0}.st6{fill:#3152a0}</style><circle cx="256" cy="256" r="256" style="fill:#fff"/><path d="m453.3 267.8-1-1.7c-.2-.3-.3-.5-.5-.8l-73.4-111.8-94.9 70.7L352.9 331c.3.5.6.9.9 1.4l.4.6c10.8 15.3 28.5 25.3 48.6 25.3 32.8 0 59.4-26.6 59.4-59.4-.1-11.4-3.3-22-8.9-31.1" style="fill:#95c748"/><circle cx="109.2" cy="298.9" r="59.4" style="fill:#35bfc0"/><defs><path id="SVGID_1_" d="m453.3 267.8-1-1.7c-.2-.3-.3-.5-.5-.8l-73.4-111.8c-10.5-17-29.1-28.3-50.6-28.3-32.8 0-59.4 26.6-59.4 59.4 0 15.2 5.8 29.1 15.2 39.5L353 330.9c.3.5.6.9.9 1.4l.4.6c10.8 15.3 28.5 25.3 48.6 25.3 32.8 0 59.4-26.6 59.4-59.4-.2-11.3-3.4-21.9-9-31"/></defs><clipPath id="SVGID_00000119807648476846525140000004491485560081222808_"><use xlink:href="#SVGID_1_" style="overflow:visible"/></clipPath><g style="clip-path:url(#SVGID_00000119807648476846525140000004491485560081222808_)"><image xlink:href="C6672D13.png" width="87" height="66" style="overflow:visible;opacity:.5" transform="translate(34.16 99.38)scale(4.4497)"/><path d="M387.5 184.8c0-32.8-26.6-59.4-59.4-59.4s-59.4 26.6-59.4 59.4c0 12.1 3.6 23.3 9.8 32.6l-45.1-63.8h-.1c-10.5-16.9-29.1-28.3-50.6-28.3s-40.1 11.3-50.5 28.3l-71.8 112c10.7-15.8 28.7-26.2 49.2-26.2 21.6 0 40.4 11.5 50.8 28.7h.1l46.9 65.9h.1c10.8 14.6 28.1 24.2 47.8 24.2s37-9.5 47.8-24.2h.1l.5-.8c1.2-1.7 2.3-3.5 3.4-5.3L377.4 218c6.3-9.4 10.1-20.8 10.1-33.2m-104.6 38.6c0-.1-.1-.1-.2-.2.1 0 .1.1.2.2m4.4 4.6c.4.3.7.6 1 .9-.3-.2-.6-.6-1-.9m5.3 4.4 1.2.9zm6.7 4.4s.1 0 .1.1c0 0 0-.1-.1-.1m6.4 3c.5.2 1 .4 1.5.5-.6-.1-1-.2-1.5-.5m6.3 2.2c.7.2 1.4.4 2.1.5-.6-.1-1.4-.3-2.1-.5m7 1.5 2.1.3c-.8-.1-1.4-.2-2.1-.3m48.1-14c.5-.5 1-.9 1.6-1.4-.5.5-1.1.9-1.6 1.4M335 243.8l2.1-.3zm6.7-1.2c.8-.2 1.5-.4 2.3-.6-.8.2-1.5.4-2.3.6m6.7-2.1c.6-.2 1.3-.5 1.9-.7-.6.3-1.2.5-1.9.7m13.5-6.9c.5-.4 1-.7 1.5-1.1-.5.4-1 .7-1.5 1.1m10.1-8.9c.4-.5.9-.9 1.3-1.4-.5.5-.9.9-1.3 1.4M58.8 268c.5-.7.9-1.4 1.3-2.2z" class="st4"/></g><circle cx="327.9" cy="184.9" r="59.5" style="fill:#f38334"/><path d="M327.8 244.3c-20.7 0-39-10.7-49.6-26.8L233 153.7c-10.5-16.9-29.2-28.3-50.6-28.3s-40.1 11.3-50.5 28.3L60 265.7c10.7-15.8 28.7-26.2 49.2-26.2 21.6 0 40.4 11.5 50.8 28.7h.1l46.9 65.9h.1c10.8 14.6 28.1 24.2 47.8 24.2 19.6 0 37-9.5 47.8-24.2h.1l.5-.8c1.2-1.7 2.3-3.5 3.4-5.3l70.6-109.9c-10.7 15.8-29 26.2-49.5 26.2M58.5 268c.5-.7.9-1.4 1.4-2.2z" class="st6"/></svg>

<?xml version="1.0" encoding="utf-8"?>
<!-- Generator: Adobe Illustrator 27.7.0, SVG Export Plug-In . SVG Version: 6.00 Build 0)  -->
<svg version="1.1" id="Layer_1" xmlns="http://www.w3.org/2000/svg" xmlns:xlink="http://www.w3.org/1999/xlink" x="0px" y="0px"
	 viewBox="0 0 512 512" style="enable-background:new 0 0 512 512;" xml:space="preserve">
<style type="text/css">
	.st0{fill:#FFFFFF;}
	.st1{fill:#95C748;}
	.st2{fill:#35BFC0;}
	.st3{clip-path:url(#SVGID_00000179645639998590863740000006925032187673372092_);}
	.st4{fill:#3252A0;}
	.st5{fill:#F38334;}
	.st6{fill:#3152A0;}
</style>
<g>
	<circle class="st0" cx="256" cy="256" r="256"/>
	<g>
		<path class="st1" d="M453.3,267.8L453.3,267.8l-1-1.7c-0.2-0.3-0.3-0.5-0.5-0.8l-73.4-111.8l-94.9,70.7l69.4,106.8
			c0.3,0.5,0.6,0.9,0.9,1.4l0.4,0.6l0,0c10.8,15.3,28.5,25.3,48.6,25.3c32.8,0,59.4-26.6,59.4-59.4
			C462.1,287.5,458.9,276.9,453.3,267.8z"/>
		<circle class="st2" cx="109.2" cy="298.9" r="59.4"/>
		<g>
			<g>
				<defs>
					<path id="SVGID_1_" d="M453.3,267.8L453.3,267.8l-1-1.7c-0.2-0.3-0.3-0.5-0.5-0.8l-73.4-111.8l0,0
						c-10.5-17-29.1-28.3-50.6-28.3c-32.8,0-59.4,26.6-59.4,59.4c0,15.2,5.8,29.1,15.2,39.5l0,0l69.4,106.8c0.3,0.5,0.6,0.9,0.9,1.4
						l0.4,0.6l0,0c10.8,15.3,28.5,25.3,48.6,25.3c32.8,0,59.4-26.6,59.4-59.4C462.1,287.5,458.9,276.9,453.3,267.8z"/>
				</defs>
				<clipPath id="SVGID_00000119807648476846525140000004491485560081222808_">
					<use xlink:href="#SVGID_1_"  style="overflow:visible;"/>
				</clipPath>
				<g style="clip-path:url(#SVGID_00000119807648476846525140000004491485560081222808_);">
					
						<image style="overflow:visible;opacity:0.5;enable-background:new    ;" width="87" height="66" xlink:href="C6672D13.png"  transform="matrix(4.4497 0 0 4.4497 34.1601 99.3805)">
					</image>
					<g>
						<g>
							<path class="st4" d="M387.5,184.8c0-32.8-26.6-59.4-59.4-59.4s-59.4,26.6-59.4,59.4c0,12.1,3.6,23.3,9.8,32.6l0,0h0
								l-45.1-63.8h-0.1c-10.5-16.9-29.1-28.3-50.6-28.3s-40.1,11.3-50.5,28.3h0l-71.8,112c10.7-15.8,28.7-26.2,49.2-26.2
								c21.6,0,40.4,11.5,50.8,28.7h0.1l46.9,65.9h0.1c10.8,14.6,28.1,24.2,47.8,24.2s37-9.5,47.8-24.2h0.1l0.5-0.8
								c1.2-1.7,2.3-3.5,3.4-5.3l70.3-109.9l0,0C383.7,208.6,387.5,197.2,387.5,184.8z M282.9,223.4c0-0.1-0.1-0.1-0.2-0.2
								C282.8,223.2,282.8,223.3,282.9,223.4z M287.3,228c0.4,0.3,0.7,0.6,1,0.9C288,228.7,287.7,228.3,287.3,228z M292.6,232.4
								c0.4,0.3,0.8,0.6,1.2,0.9C293.4,233,293,232.7,292.6,232.4z M299.3,236.8c0,0,0.1,0,0.1,0.1
								C299.4,236.9,299.4,236.8,299.3,236.8z M305.7,239.8c0.5,0.2,1,0.4,1.5,0.5C306.6,240.2,306.2,240.1,305.7,239.8z M312,242
								c0.7,0.2,1.4,0.4,2.1,0.5C313.5,242.4,312.7,242.2,312,242z M319,243.5c0.7,0.1,1.4,0.2,2.1,0.3
								C320.3,243.7,319.7,243.6,319,243.5z M367.1,229.5c0.5-0.5,1-0.9,1.6-1.4C368.2,228.6,367.6,229,367.1,229.5z M335,243.8
								c0.7-0.1,1.4-0.2,2.1-0.3C336.4,243.6,335.7,243.7,335,243.8z M341.7,242.6c0.8-0.2,1.5-0.4,2.3-0.6
								C343.2,242.2,342.5,242.4,341.7,242.6z M348.4,240.5c0.6-0.2,1.3-0.5,1.9-0.7C349.7,240.1,349.1,240.3,348.4,240.5z
								 M356.3,237.1L356.3,237.1L356.3,237.1z M361.9,233.6c0.5-0.4,1-0.7,1.5-1.1C362.9,232.9,362.4,233.2,361.9,233.6z
								 M372,224.7c0.4-0.5,0.9-0.9,1.3-1.4C372.8,223.8,372.4,224.2,372,224.7z"/>
							<path class="st4" d="M58.8,268c0.5-0.7,0.9-1.4,1.3-2.2L58.8,268L58.8,268z"/>
						</g>
					</g>
				</g>
			</g>
		</g>
		<circle class="st5" cx="327.9" cy="184.9" r="59.5"/>
		<g>
			<path class="st6" d="M327.8,244.3c-20.7,0-39-10.7-49.6-26.8h0L233,153.7h0c-10.5-16.9-29.2-28.3-50.6-28.3
				c-21.4,0-40.1,11.3-50.5,28.3h0L60,265.7c10.7-15.8,28.7-26.2,49.2-26.2c21.6,0,40.4,11.5,50.8,28.7h0.1l46.9,65.9h0.1
				c10.8,14.6,28.1,24.2,47.8,24.2c19.6,0,37-9.5,47.8-24.2h0.1l0.5-0.8c1.2-1.7,2.3-3.5,3.4-5.3l70.6-109.9
				C366.6,233.9,348.3,244.3,327.8,244.3z"/>
			<path class="st6" d="M58.5,268L58.5,268c0.5-0.7,0.9-1.4,1.4-2.2L58.5,268z"/>
			<path class="st6" d="M377.3,217.7"/>
		</g>
	</g>
</g>
</svg>
